!! 00000] TT[WS
!!!OTL: Jiemei taqing
!!!ARE: Asia, China,ÿShanxi Xixian
!! Ethnic Group: Han
!! WI, 237 (2)
!!!SCT: J0283
!!!YEM: Copyright 1995, estate of Helmut Schaffrath.
**kern
*ICvox
*Ivox
*M2/4
*k[f#]
*G:
{8a
4a
8b
=1
2dd
=2
8.ee
16dd
8b
8a
=3
8g
8e
8dd
8b
=4
2a}
=5
{4a
4dd
=6
8ee
8dd
8b
8dd
=7
8a
8b
4g
=8
4b
8a
8g
=9
4a
4e
=10
2d}
=11
{8.g
16a
8e
8g
=12
8a
8dd
8a
8g
=13
8e
8d
8A
8B
=14
4.d
8e
=15
4d
4r}
==
!!!AGN: Xiaodiao. Qingge, Sichun
!!!ONB: ESAC (Essen Associative Code) Database: CHINA
!!!AMT: simple duple
!!!AIN: vox
!!!EED: Helmut Schaffrath
!!!EEV: 1.0
*-
